X: 1
T: The Hills Of Tipperary
R: reel
M: 4/4
L: 1/8
K: Gmaj
(3DEF|:G2 DG BGBd|g2 eg fdcA|BG~G2 FGAF|GBAG FDEF|
G2 DG BGBd|g2 eg fdcA|BG~G2 FGAg|fdcA G4:|
g2 dg bgaf|g2 eg fdcA|BG~G2 AGFD|FGAg fdce|
g2 dg bgaf|g2 eg fdcA|BG~G2 FGAg|fdcA G4||
g2 dg bgaf|g2 eg fdcA|BG~G2 AGFD|FGAg fdcA|
BG~G2 FGAd|g2 eg fgag|bg~g2 egfd|cAFA G4||

composer: Paddy O'Brien
